other/cricbuzz.svg

<?xml version="1.0" encoding="UTF-8" standalone="no"?>
<svg
   viewBox="0 0 48 48"
   version="1.1"
   id="svg8"
   xml:space="preserve"
   xmlns="http://www.w3.org/2000/svg"
   xmlns:svg="http://www.w3.org/2000/svg"><defs
     id="defs4"><style
       id="style2">.a{fill:none;stroke:#fff;stroke-linecap:round;stroke-linejoin:round;}</style></defs><g
     id="g642"
     transform="matrix(2.4183842,0.28837486,-0.28837486,2.4183842,-104.63874,-294.32652)"
     style="stroke-width:0.410591">
		<g
   id="g638"
   style="stroke-width:0.410591">
			<path
   class="st0"
   d="m 69.2,123.2 c 0,-1.1 0.9,-2 2,-2 v 0 c 1.1,0 2,0.9 2,2 v 1.3 c 0,1.1 -0.9,2 -2,2 v 0 c -1.1,0 -2,-0.9 -2,-2"
   id="path636"
   style="fill:none;stroke:#ffffff;stroke-width:0.410591;stroke-linecap:round;stroke-linejoin:round;stroke-miterlimit:10" />
		</g>
		<line
   class="st0"
   x1="69.199997"
   y1="126.5"
   x2="69.199997"
   y2="118.5"
   id="line640"
   style="fill:none;stroke:#ffffff;stroke-width:0.410591;stroke-linecap:round;stroke-linejoin:round;stroke-miterlimit:10" />
	</g><circle
     class="a"
     cx="24"
     cy="24"
     r="21.5"
     id="circle6" /><path
     style="font-variation-settings:normal;opacity:1;vector-effect:none;fill:none;fill-opacity:1;stroke:#ffffff;stroke-width:1;stroke-linecap:round;stroke-linejoin:round;stroke-miterlimit:4;stroke-dasharray:none;stroke-dashoffset:0;stroke-opacity:1;-inkscape-stroke:none;stop-color:#000000;stop-opacity:1"
     d="M 31.200814,3.7417108 C 10.777494,2.597147 1.7292397,17.821289 4.6266344,33.323235"
     id="path2323" /><path
     style="font-variation-settings:normal;opacity:1;vector-effect:none;fill:none;fill-opacity:1;stroke:#ffffff;stroke-width:1;stroke-linecap:round;stroke-linejoin:round;stroke-miterlimit:4;stroke-dasharray:none;stroke-dashoffset:0;stroke-opacity:1;-inkscape-stroke:none;stop-color:#000000;stop-opacity:1"
     d="M 33.680227,4.8025209 C 9.6667935,4.256156 3.5369485,23.788844 5.3026956,34.61418"
     id="path2325" /><path
     style="font-variation-settings:normal;opacity:1;vector-effect:none;fill:none;fill-opacity:1;stroke:#ffffff;stroke-width:1;stroke-linecap:round;stroke-linejoin:round;stroke-miterlimit:4;stroke-dasharray:none;stroke-dashoffset:0;stroke-opacity:1;-inkscape-stroke:none;stop-color:#000000;stop-opacity:1"
     d="M 16.716322,6.2851064 16.15101,9.2619215"
     id="path2327" /><path
     style="font-variation-settings:normal;opacity:1;vector-effect:none;fill:none;fill-opacity:1;stroke:#ffffff;stroke-width:1;stroke-linecap:round;stroke-linejoin:round;stroke-miterlimit:4;stroke-dasharray:none;stroke-dashoffset:0;stroke-opacity:1;-inkscape-stroke:none;stop-color:#000000;stop-opacity:1"
     d="M 20.112241,4.9527118 19.205092,7.545303"
     id="path2329" /><path
     style="font-variation-settings:normal;opacity:1;vector-effect:none;fill:none;fill-opacity:1;stroke:#ffffff;stroke-width:1;stroke-linecap:round;stroke-linejoin:round;stroke-miterlimit:4;stroke-dasharray:none;stroke-dashoffset:0;stroke-opacity:1;-inkscape-stroke:none;stop-color:#000000;stop-opacity:1"
     d="M 22.537268,4.4527118 22.086523,6.2490074"
     id="path2331" /><path
     style="font-variation-settings:normal;opacity:1;vector-effect:none;fill:none;fill-opacity:1;stroke:#ffffff;stroke-width:1;stroke-linecap:round;stroke-linejoin:round;stroke-miterlimit:4;stroke-dasharray:none;stroke-dashoffset:0;stroke-opacity:1;-inkscape-stroke:none;stop-color:#000000;stop-opacity:1"
     d="M 25.557262,3.9527118 V 5.3508596"
     id="path2333" /><path
     style="font-variation-settings:normal;opacity:1;vector-effect:none;fill:none;fill-opacity:1;stroke:#ffffff;stroke-width:1;stroke-linecap:round;stroke-linejoin:round;stroke-miterlimit:4;stroke-dasharray:none;stroke-dashoffset:0;stroke-opacity:1;-inkscape-stroke:none;stop-color:#000000;stop-opacity:1"
     d="m 12.931775,8.6031775 0.09002,3.1364965"
     id="path2337" /><path
     style="font-variation-settings:normal;opacity:1;vector-effect:none;fill:none;fill-opacity:1;stroke:#ffffff;stroke-width:1;stroke-linecap:round;stroke-linejoin:round;stroke-miterlimit:4;stroke-dasharray:none;stroke-dashoffset:0;stroke-opacity:1;-inkscape-stroke:none;stop-color:#000000;stop-opacity:1"
     d="M 9.897221,11.421628 10.12896,15.01802"
     id="path2339" /><path
     style="font-variation-settings:normal;opacity:1;vector-effect:none;fill:none;fill-opacity:1;stroke:#ffffff;stroke-width:1;stroke-linecap:round;stroke-linejoin:round;stroke-miterlimit:4;stroke-dasharray:none;stroke-dashoffset:0;stroke-opacity:1;-inkscape-stroke:none;stop-color:#000000;stop-opacity:1"
     d="m 7.1126718,15.385748 0.8058256,3.267667"
     id="path2341" /><path
     style="font-variation-settings:normal;opacity:1;vector-effect:none;fill:none;fill-opacity:1;stroke:#ffffff;stroke-width:1;stroke-linecap:round;stroke-linejoin:round;stroke-miterlimit:4;stroke-dasharray:none;stroke-dashoffset:0;stroke-opacity:1;-inkscape-stroke:none;stop-color:#000000;stop-opacity:1"
     d="M 6.4522261,22.208801 5.1414488,20.175348"
     id="path2343" /><path
     style="font-variation-settings:normal;opacity:1;vector-effect:none;fill:none;fill-opacity:1;stroke:#ffffff;stroke-width:1;stroke-linecap:round;stroke-linejoin:round;stroke-miterlimit:4;stroke-dasharray:none;stroke-dashoffset:0;stroke-opacity:1;-inkscape-stroke:none;stop-color:#000000;stop-opacity:1"
     d="M 5.4897615,25.944411 4.3009144,24.315243"
     id="path2345" /><path
     style="font-variation-settings:normal;opacity:1;vector-effect:none;fill:none;fill-opacity:1;stroke:#ffffff;stroke-width:1;stroke-linecap:round;stroke-linejoin:round;stroke-miterlimit:4;stroke-dasharray:none;stroke-dashoffset:0;stroke-opacity:1;-inkscape-stroke:none;stop-color:#000000;stop-opacity:1"
     d="M 28.306657,3.6889119 28.143623,5.055415"
     id="path2347" /><path
     style="font-variation-settings:normal;opacity:1;vector-effect:none;fill:none;fill-opacity:1;stroke:#ffffff;stroke-width:1;stroke-linecap:round;stroke-linejoin:round;stroke-miterlimit:4;stroke-dasharray:none;stroke-dashoffset:0;stroke-opacity:1;-inkscape-stroke:none;stop-color:#000000;stop-opacity:1"
     d="M 24.518804,2.5062604 24.352598,4.0072917"
     id="path2349" /><path
     style="font-variation-settings:normal;opacity:1;vector-effect:none;fill:none;fill-opacity:1;stroke:#ffffff;stroke-width:1;stroke-linecap:round;stroke-linejoin:round;stroke-miterlimit:4;stroke-dasharray:none;stroke-dashoffset:0;stroke-opacity:1;-inkscape-stroke:none;stop-color:#000000;stop-opacity:1"
     d="M 22.423744,2.5578588 22.064904,4.430184"
     id="path2351" /><path
     style="font-variation-settings:normal;opacity:1;vector-effect:none;fill:none;fill-opacity:1;stroke:#ffffff;stroke-width:1;stroke-linecap:round;stroke-linejoin:round;stroke-miterlimit:4;stroke-dasharray:none;stroke-dashoffset:0;stroke-opacity:1;-inkscape-stroke:none;stop-color:#000000;stop-opacity:1"
     d="M 20.179443,2.8421801 19.546432,5.134983"
     id="path2353" /><path
     style="font-variation-settings:normal;opacity:1;vector-effect:none;fill:none;fill-opacity:1;stroke:#ffffff;stroke-width:1;stroke-linecap:round;stroke-linejoin:round;stroke-miterlimit:4;stroke-dasharray:none;stroke-dashoffset:0;stroke-opacity:1;-inkscape-stroke:none;stop-color:#000000;stop-opacity:1"
     d="M 17.195638,3.6051316 16.716322,6.2851065"
     id="path2355" /><path
     style="font-variation-settings:normal;opacity:1;vector-effect:none;fill:none;fill-opacity:1;stroke:#ffffff;stroke-width:1;stroke-linecap:round;stroke-linejoin:round;stroke-miterlimit:4;stroke-dasharray:none;stroke-dashoffset:0;stroke-opacity:1;-inkscape-stroke:none;stop-color:#000000;stop-opacity:1"
     d="m 13.647262,5.1566769 -0.05204,2.9606696"
     id="path2357" /><path
     style="font-variation-settings:normal;opacity:1;vector-effect:none;fill:none;fill-opacity:1;stroke:#ffffff;stroke-width:1;stroke-linecap:round;stroke-linejoin:round;stroke-miterlimit:4;stroke-dasharray:none;stroke-dashoffset:0;stroke-opacity:1;-inkscape-stroke:none;stop-color:#000000;stop-opacity:1"
     d="m 10.566579,7.213303 0.267334,3.216492"
     id="path2359" /><path
     style="font-variation-settings:normal;opacity:1;vector-effect:none;fill:none;fill-opacity:1;stroke:#ffffff;stroke-width:1;stroke-linecap:round;stroke-linejoin:round;stroke-miterlimit:4;stroke-dasharray:none;stroke-dashoffset:0;stroke-opacity:1;-inkscape-stroke:none;stop-color:#000000;stop-opacity:1"
     d="m 7.6376504,10.052831 0.58886,3.515894"
     id="path2361" /><path
     style="font-variation-settings:normal;opacity:1;vector-effect:none;fill:none;fill-opacity:1;stroke:#ffffff;stroke-width:1;stroke-linecap:round;stroke-linejoin:round;stroke-miterlimit:4;stroke-dasharray:none;stroke-dashoffset:0;stroke-opacity:1;-inkscape-stroke:none;stop-color:#000000;stop-opacity:1"
     d="m 4.9383982,14.054884 1.2371114,3.244895"
     id="path2363" /><path
     style="font-variation-settings:normal;opacity:1;vector-effect:none;fill:none;fill-opacity:1;stroke:#ffffff;stroke-width:1;stroke-linecap:round;stroke-linejoin:round;stroke-miterlimit:4;stroke-dasharray:none;stroke-dashoffset:0;stroke-opacity:1;-inkscape-stroke:none;stop-color:#000000;stop-opacity:1"
     d="m 3.4894403,17.552757 1.4010683,3.553219"
     id="path2365" /><path
     style="font-variation-settings:normal;opacity:1;vector-effect:none;fill:none;fill-opacity:1;stroke:#ffffff;stroke-width:1;stroke-linecap:round;stroke-linejoin:round;stroke-miterlimit:4;stroke-dasharray:none;stroke-dashoffset:0;stroke-opacity:1;-inkscape-stroke:none;stop-color:#000000;stop-opacity:1"
     d="m 2.5859078,22.079933 1.7150067,2.23531"
     id="path2367" /><path
     class="st0"
     d="m 21.21722,30.224094 c -0.89854,1.364522 -2.706761,2.130012 -4.399631,1.928148 v 0 c -2.660223,-0.317265 -4.57723,-2.753291 -4.260023,-5.413516 l 0.374889,-3.143901 c 0.317267,-2.660216 2.753289,-4.577237 5.413521,-4.26002 v 0 c 1.692856,0.201912 3.270386,1.371082 3.822876,2.908615"
     id="path500"
     style="fill:none;stroke:#ffffff;stroke-width:1;stroke-linecap:round;stroke-linejoin:round;stroke-miterlimit:10" /></svg>

<?xml version="1.0" encoding="UTF-8"?><svg id="a" xmlns="http://www.w3.org/2000/svg" viewBox="0 0 48 48"><defs><style>.ad{fill:none;stroke:#fff;stroke-linecap:round;stroke-linejoin:round;}</style></defs><circle id="b" class="ad" cx="24" cy="24" r="21.5"/><path id="c" class="ad" d="M31.2008,3.7417C10.7775,2.5971,1.7292,17.8213,4.6266,33.3232"/><path id="d" class="ad" d="M33.6802,4.8025C9.6668,4.2562,3.5369,23.7888,5.3027,34.6142"/><path id="e" class="ad" d="M16.7163,6.2851l-.5653,2.9768"/><path id="f" class="ad" d="M20.1122,4.9527l-.9072,2.5926"/><path id="g" class="ad" d="M22.5373,4.4527l-.4507,1.7963"/><path id="h" class="ad" d="M25.5573,3.9527v1.3981"/><path id="i" class="ad" d="M12.9318,8.6032l.09,3.1365"/><path id="j" class="ad" d="M9.8972,11.4216l.2317,3.5964"/><path id="k" class="ad" d="M7.1127,15.3857l.8058,3.2677"/><path id="l" class="ad" d="M6.4522,22.2088l-1.3108-2.0335"/><path id="m" class="ad" d="M5.4898,25.9444l-1.1888-1.6292"/><path id="n" class="ad" d="M28.3067,3.6889l-.163,1.3665"/><path id="o" class="ad" d="M24.5188,2.5063l-.1662,1.501"/><path id="p" class="ad" d="M22.4237,2.5579l-.3588,1.8723"/><path id="q" class="ad" d="M20.1794,2.8422l-.633,2.2928"/><path id="r" class="ad" d="M17.1956,3.6051l-.4793,2.68"/><path id="s" class="ad" d="M13.6473,5.1567l-.052,2.9607"/><path id="t" class="ad" d="M10.5666,7.2133l.2673,3.2165"/><path id="u" class="ad" d="M7.6377,10.0528l.5889,3.5159"/><path id="v" class="ad" d="M4.9384,14.0549l1.2371,3.2449"/><path id="w" class="ad" d="M3.4894,17.5528l1.4011,3.5532"/><path id="x" class="ad" d="M2.5859,22.0799l1.715,2.2353"/><g><g id="y"><g id="z"><path id="aa" class="ad" d="M25.5781,23.574c.3172-2.6602,2.7533-4.5772,5.4135-4.26h0c2.6602,.3172,4.5772,2.7533,4.26,5.4135l-.3749,3.1439c-.3172,2.6602-2.7533,4.5772-5.4135,4.26h0c-2.6602-.3172-4.5772-2.7533-4.26-5.4135"/></g><line id="ab" class="ad" x1="24.6265" y1="31.5546" x2="26.9335" y2="12.2076"/></g><path id="ac" class="ad" d="M21.408,30.2241c-.8985,1.3645-2.7068,2.13-4.3996,1.9281h0c-2.6602-.3173-4.5772-2.7533-4.26-5.4135l.3749-3.1439c.3173-2.6602,2.7533-4.5772,5.4135-4.26h0c1.6929,.2019,3.2704,1.3711,3.8229,2.9086"/></g></svg>
